dist/img/facts/fact-3.svg

<svg width="41" height="39" viewBox="0 0 41 39" fill="none" xmlns="http://www.w3.org/2000/svg">
<path d="M20.0771 0L24.8092 14.5639H40.1226L27.7338 23.5649L32.4659 38.1289L20.0771 29.1278L7.6883 38.1289L12.4204 23.5649L0.0315876 14.5639H15.345L20.0771 0Z" fill="#FFB500"/>
</svg>

<svg width="41" height="39" fill="none" xmlns="http://www.w3.org/2000/svg"><path d="M20.077 0l4.732 14.564h15.314l-12.39 9 4.733 14.565-12.389-9.001-12.389 9 4.732-14.563L.032 14.564h15.313L20.077 0z" fill="#FFB500"/></svg>
